X:1
T:Title
%%score { ( 1 4 ) | ( 2 3 ) }
L:1/8
M:4/4
K:Eb
V:1 treble nm="Grand Piano"
V:4 treble 
V:2 bass 
V:3 bass 
V:1
 z4 z2[Q:1/4=92] EF | [B,G]2 [B,G]>G [CA]2 [B,G]E | [B,G]2 [A,F]4 FG | [DB]2 [CA]>A [A,C]2 [CA]>A | %4
[M:3/4] [B,G]6 |[M:1/4] EF |[M:4/4] [B,G]2 [B,G]>A [B,G]2 [_DB]>c | [_DB]2 [CA]4 EF | %8
 [B,G]2 GA [B,G] G2 F |[M:3/4] [G,E]6 |[M:1/4] [AB][AB] |[M:4/4] [Ge]2 [Gd]>[Gc] [GB] [Gc]2 [EG] | %12
 [DA]6 z2 | [Ad]2 [Ac]>[GB] [FA] [GB]2 [FA] | G6 z2 | [Ge]2 [Gd]>[Gc] [GB]2 [Gc]>[_DG] | %16
 z [FA]3- [FA]2 z2 | [EGB]2 [G,E][CEA] [B,EG] [B,DG]2 [A,B,F] |[M:3/4] [G,B,E]6 |] %19
V:2
 z4 z2 G,A, | E,,2 z z/ B,/ E,2 z G, | F,,2 C,2 F,2 A,B, | B,,,2 z z/ C/ D,2 z z/ C/ | %4
[M:3/4] E,,2 B,,2 E,2 |[M:1/4] G,A, |[M:4/4] E,,2 z z/ C/ E,2 z z/ _D/ | A,,2 E,2 A,2 C=B, | %8
 z2 B,C z B,2 A, |[M:3/4] E,2 B,,2 E,,2 |[M:1/4] B,B, | %11
[M:4/4] [E,B,]2 [E,B,]>[E,B,] [E,B,] [E,B,]2 [E,B,] | [F,B,] F,2 D, B,,2 z[K:treble] B | %13
 [B,,B,]2 [B,,B,]>[B,,B,] [B,,B,] [B,,B,]2 [B,,B,] | .E2 z2 z2[K:treble] [B,A][B,A] | %15
 [E,B,]2 [E,B,]>[E,B,] [E,E]2 [E,E]>=E, | F,F, F,>F, F,F,=A,,A,, | B,,2 B,,B,, B,, B,,2 B,, | %18
[M:3/4] E,6 |] %19
V:3
 x8 | z2 B,,2 z2 B,,2 | x8 | z2 B,,2 z2 B,,2 |[M:3/4] x6 |[M:1/4] x2 |[M:4/4] z2 B,,2 z2 G,,2 | %7
 x8 | B,,4 B,,4 |[M:3/4] x6 |[M:1/4] x2 |[M:4/4] x8 | z4 z2 B,,2[K:treble] | x8 | %14
 [E,-B,]4 E,2[K:treble] z2 | x8 | x8 | x8 |[M:3/4] x6 |] %19
V:4
 x8 | x8 | x8 | x8 |[M:3/4] x6 |[M:1/4] x2 |[M:4/4] x8 | x8 | x8 |[M:3/4] x6 |[M:1/4] x2 | %11
[M:4/4] x8 | z B,2 B, B,2 .[B,DA]2 | x8 | z D2 C B,2 BB | x8 | [CGB]C C>C CC[D_Gd][EGc] | x8 | %18
[M:3/4] x6 |] %19

